X: 105
I: linebreak $
T: Tom Tinker
T: longways for as many as will
P: AABB x many
C: 
K: C major
M: 6/4
L: 1/8
P: A
 |: "C"c2 | "C"c2e2c2 "G"d2"Dm"f2AB | "C"c2"G"B3A G4f2 | "C"e3def g2e2c2 | "G"d2B2G2 "C"c4 :: 
P: B
"C"c2 | "G"d2"C"e4 "G"d2f4 | "C"c2"G"B3A G4f2 | 
"C"e3def g2e2c2 | "G"d2B2G2 "C"c4 :: "^A variation"c2 | c2e2c2 B2A3B | c2BcBA G3AB2 | c2cdef g2e4 | d2B4 c4 :: c2 | 
d2e4 def2d2 | c2BcBA G3ef2 | e6- e2e2c2 | d2B2G2 c4 :| 

